X: 385
T:Douleur me bat
N: Derived from Jos2904-Douleur_me_bat.krn
C: Josquin des Prez
%%abc-version 2.0
%%abcx-abcm2ps-target-version 5.9.1 (29 Sep 2008)
%%abc-creator hum2abc beta
%%abcx-conversion-date 2019/02/12 16:15:55
%%abc-edited-by Jesse Rodin
%%abc-edited-by Will Watson 06/09/2011
%%abcx-initial-encoding-date 2011/09/06/
%%humdrum-veritas 2460651930
%%humdrum-veritas-data 1953026972
%%linebreak <none>
%%barnumbers 0
L: 1/4
M: 2/1
Q: 1/2=120
V: 1 clef=treble
V: 2 clef=treble-8
V: 3 clef=treble-8
V: 4 clef=treble-8
V: 5 clef=bass
K: C
[V:1] z4E4 | 
[V:2] z8 | 
[V:3] e4e2e2- | 
[V:4] z8 | 
[V:5] z8 | 
[V:1] F4F4 | 
[V:2] z8 | 
[V:3] e2dcd4 | 
[V:4] z8 | 
[V:5] z8 | 
[V:1] E3FG4 | 
[V:2] z8 | 
[V:3] e8 | 
[V:4] z8 | 
[V:5] z4E,4 | 
[V:1] z2A2A2A2- | 
[V:2] z8 | 
[V:3] z8 | 
[V:4] z8 | 
[V:5] F,4F,4 | 
[V:1] A2^G^FG4 | 
[V:2] z8 | 
[V:3] z2e2e2e2- | 
[V:4] z4E4 | 
[V:5] E,4z4 | 
[V:1] A8 | 
[V:2] z8 | 
[V:3] e2dcd4 | 
[V:4] F4F4 | 
[V:5] z2A,2A,2A,2- | 
[V:1] z8 | 
[V:2] z4B4 | 
[V:3] e8 | 
[V:4] E8 | 
[V:5] A,2^G,^F,G,4 | 
[V:1] z2E2E2E2 | 
[V:2] c4c4 | 
[V:3] z4e4 | 
[V:4] z4A4 | 
[V:5] A,4z2A,,2 | 
[V:1] G3ABcB2- | 
[V:2] B8 | 
[V:3] e4e4 | 
[V:4] G4G4 | 
[V:5] E,4E,4 | 
[V:1] BAA4^G2 | 
[V:2] z4e4 | 
[V:3] c2A2B4 | 
[V:4] A4E4 | 
[V:5] A,,4z4 | 
[V:1] A8 | 
[V:2] d4d4 | 
[V:3] A2DEFGAF | 
[V:4] F8 | 
[V:5] D,4D,2D,2 | 
[V:1] z8 | 
[V:2] e4B4 | 
[V:3] G2A4^G2 | 
[V:4] E8 | 
[V:5] C,2A,,2E,4 | 
[V:1] z2A2A2A2- | 
[V:2] c8 | 
[V:3] A8 | 
[V:4] z8 | 
[V:5] A,,8 | 
[V:1] A2^G^FG4 | 
[V:2] B8 | 
[V:3] z2e2e2e2- | 
[V:4] E8 | 
[V:5] z8 | 
[V:1] A8 | 
[V:2] z8 | 
[V:3] e2dcd4 | 
[V:4] F4F4 | 
[V:5] z2A,2A,2A,2- | 
[V:1] z8 | 
[V:2] B8 | 
[V:3] e8 | 
[V:4] E8 | 
[V:5] A,2^G,^F,G,4 | 
[V:1] z2E2E2E2 | 
[V:2] c4c4 | 
[V:3] z4e4 | 
[V:4] z4A4 | 
[V:5] A,4z2A,,2 | 
[V:1] G3ABcB2- | 
[V:2] B8 | 
[V:3] e4e4 | 
[V:4] G4G4 | 
[V:5] E,4E,4 | 
[V:1] BAA4^G2 | 
[V:2] z4e4 | 
[V:3] c2A2B4 | 
[V:4] A4E4 | 
[V:5] A,,4z4 | 
[V:1] A8 | 
[V:2] d4d4 | 
[V:3] A4z2A2 | 
[V:4] F8 | 
[V:5] D,4D,2D,2 | 
[V:1] z8 | 
[V:2] e4B4 | 
[V:3] c2c2G4- | 
[V:4] E8 | 
[V:5] C,2A,,2E,3D, | 
[V:1] z4G4- | 
[V:2] c8 | 
[V:3] G2G2E3F | 
[V:4] z8 | 
[V:5] C,B,,C,4B,,A,, | 
[V:1] G2G2G4 | 
[V:2] B8 | 
[V:3] G8 | 
[V:4] z4G4- | 
[V:5] G,,8- | 
[V:1] D8 | 
[V:2] z8 | 
[V:3] z4d4- | 
[V:4] G2G2G4 | 
[V:5] G,,8 | 
[V:1] z4A4 | 
[V:2] z4d4- | 
[V:3] d2d2d4 | 
[V:4] D4z2D2 | 
[V:5] z8 | 
[V:1] A4A2F2- | 
[V:2] d2d2d4 | 
[V:3] D8 | 
[V:4] F6F2 | 
[V:5] z4D,4- | 
[V:1] FEDCD4 | 
[V:2] A6A2 | 
[V:3] z4A4 | 
[V:4] F4F4 | 
[V:5] D,2D,2D,4 | 
[V:1] E8 | 
[V:2] c6c2 | 
[V:3] A4A4 | 
[V:4] E8 | 
[V:5] A,,4A,,4 | 
[V:1] z4G4- | 
[V:2] c4c4 | 
[V:3] E4E3F | 
[V:4] z8 | 
[V:5] C,2C,2C,2C,2 | 
[V:1] G2G2G4 | 
[V:2] B8 | 
[V:3] G8 | 
[V:4] z4G4- | 
[V:5] G,,8- | 
[V:1] D8 | 
[V:2] z8 | 
[V:3] z4d4- | 
[V:4] G2G2G4 | 
[V:5] G,,8 | 
[V:1] z4A4 | 
[V:2] z4d4- | 
[V:3] d2d2d4 | 
[V:4] D4z2D2 | 
[V:5] z8 | 
[V:1] A4A2F2- | 
[V:2] d2d2d4 | 
[V:3] D8 | 
[V:4] F6F2 | 
[V:5] z4D,4- | 
[V:1] FEDCD4 | 
[V:2] A4z2A2 | 
[V:3] z4A4 | 
[V:4] F4F4 | 
[V:5] D,2D,2D,4 | 
[V:1] E2c3BA2 | 
[V:2] c6c2 | 
[V:3] A4A4 | 
[V:4] E8 | 
[V:5] A,,4A,,4 | 
[V:1] GFEDE4 | 
[V:2] c4c4 | 
[V:3] E4E3F | 
[V:4] z8 | 
[V:5] C,2C,2C,2C,2 | 
[V:1] D4d3c | 
[V:2] B8 | 
[V:3] G8 | 
[V:4] z4G4 | 
[V:5] G,,4z2G,,2- | 
[V:1] _BAB4AG | 
[V:2] z8 | 
[V:3] d6d2 | 
[V:4] G4_B4- | 
[V:5] G,,2G,,2G,,4 | 
[V:1] F4z2A2- | 
[V:2] z4d4 | 
[V:3] d4d4 | 
[V:4] B4A4 | 
[V:5] D,8 | 
[V:1] A2A2F4 | 
[V:2] d4f4- | 
[V:3] z8 | 
[V:4] z4D4 | 
[V:5] z2D,4D,2 | 
[V:1] A2F2c2c2 | 
[V:2] f4e4 | 
[V:3] z2d2c2c2 | 
[V:4] A6A2 | 
[V:5] D,4A,,4 | 
[V:1] B2G2A4 | 
[V:2] z4A4 | 
[V:3] d2e2c4- | 
[V:4] G2E2F4 | 
[V:5] z8 | 
[V:1] G2E2G2G2 | 
[V:2] e6e2 | 
[V:3] c2BAG4 | 
[V:4] E8 | 
[V:5] z2C,2C,2C,2 | 
[V:1] F2D2E4 | 
[V:2] d2B2c4 | 
[V:3] z8 | 
[V:4] z8 | 
[V:5] D,2G,,2C,3B,, | 
[V:1] D4d3c | 
[V:2] B8 | 
[V:3] d6d2 | 
[V:4] z4G4 | 
[V:5] G,,4z2G,,2- | 
[V:1] _BAB4AG | 
[V:2] z8 | 
[V:3] d4d4 | 
[V:4] G4_B4- | 
[V:5] G,,2G,,2G,,4 | 
[V:1] F4z2A2- | 
[V:2] z4d4 | 
[V:3] z8 | 
[V:4] B4A4 | 
[V:5] D,8 | 
[V:1] A2A2F4 | 
[V:2] d4f4- | 
[V:3] z8 | 
[V:4] z4D4 | 
[V:5] z2D,4D,2 | 
[V:1] A2F2c2c2 | 
[V:2] f4e4 | 
[V:3] z2d2c2c2 | 
[V:4] A6A2 | 
[V:5] D,4A,,4 | 
[V:1] B2G2A4 | 
[V:2] z4A4 | 
[V:3] d2e2c4- | 
[V:4] G2E2F4 | 
[V:5] z8 | 
[V:1] G2E2G2G2 | 
[V:2] e6e2 | 
[V:3] c2BAG4 | 
[V:4] E8 | 
[V:5] z2C,2C,2C,2 | 
[V:1] F2D2E4 | 
[V:2] d2B2c4 | 
[V:3] z4z2c2 | 
[V:4] z8 | 
[V:5] D,2G,,2C,3B,, | 
[V:1] D4z4 | 
[V:2] B8 | 
[V:3] d2d2d2e2- | 
[V:4] z2G2G2G2 | 
[V:5] G,,8 | 
[V:1] z4z2G2 | 
[V:2] z8 | 
[V:3] edd4^c2 | 
[V:4] F2D2E4 | 
[V:5] z8 | 
[V:1] A2A2A2B2- | 
[V:2] z2d2d2d2 | 
[V:3] d2f2f2f2 | 
[V:4] D8 | 
[V:5] z2D,2F,2D,2 | 
[V:1] BAA4^G2 | 
[V:2] c2A2B4 | 
[V:3] e2d2e4 | 
[V:4] z8 | 
[V:5] A,2F,2E,4 | 
[V:1] A2A2A3G | 
[V:2] A8 | 
[V:3] c2c2d2c2 | 
[V:4] z2E2F2E2 | 
[V:5] A,,2A,,2D,2A,,2 | 
[V:1] F2E2DEFD | 
[V:2] z8 | 
[V:3] d2c2d4 | 
[V:4] D2E2F4 | 
[V:5] D,2A,,2D,4 | 
[V:1] E8- | 
[V:2] z2B2c2B2 | 
[V:3] c2G2A2G2 | 
[V:4] E8- | 
[V:5] A,,2E,2A,,2E,2 | 
[V:1] E8- | 
[V:2] A2B2c4 | 
[V:3] c2B2A4 | 
[V:4] E8- | 
[V:5] A,,2G,,2A,,4 | 
[V:1] E8 |]  
[V:2] B8 |]  
[V:3] G8 |]  
[V:4] E8 |]  
[V:5] E,,8 & E,8 |]  



